src/assets/filled/Quant.svg

<svg width="24" height="24" viewBox="0 0 24 24"  xmlns="http://www.w3.org/2000/svg">
<path d="M20.49 6.71008L12.49 2.27008C12.19 2.10008 11.82 2.10008 11.52 2.27008L3.52002 6.71008C3.20002 6.89008 3.01001 7.22008 3.01001 7.58008V16.4001C3.01001 16.7601 3.21002 17.1001 3.52002 17.2701L11.54 21.7301C11.83 21.8901 12.18 21.9001 12.47 21.7501L16.5 19.7401C16.81 19.5801 17.18 19.6001 17.48 19.7901L19.47 21.0401C20.14 21.4601 21 20.9801 21 20.1901V17.5801C21 17.2201 20.8 16.8801 20.49 16.7101L17.49 15.0501C17.19 14.8801 16.82 14.8801 16.52 15.0501L12.49 17.2901C12.19 17.4601 11.82 17.4601 11.52 17.2901L7.52002 15.0701C7.20002 14.8901 7.01001 14.5601 7.01001 14.2001V9.82008C7.01001 9.46008 7.21002 9.12007 7.52002 8.95007L11.52 6.73007C11.82 6.56007 12.19 6.56007 12.49 6.73007L16.49 8.95007C16.81 9.13007 17 9.46008 17 9.82008V12.8801C17 13.6901 17.91 14.1601 18.57 13.7001L20.57 12.3101C20.84 12.1201 21 11.8201 21 11.4901V7.60008C21 7.23008 20.8 6.89008 20.49 6.71008Z" />
<path d="M15.8601 10.4196V13.5696C15.8601 13.9196 15.6701 14.2396 15.3601 14.4096L12.4701 16.0196C12.1801 16.1796 11.8202 16.1796 11.5302 16.0196L8.64014 14.4096C8.33014 14.2396 8.14014 13.9196 8.14014 13.5696V10.4196C8.14014 10.0696 8.33014 9.74961 8.64014 9.57961L11.5302 7.96961C11.8202 7.80961 12.1801 7.80961 12.4701 7.96961L15.3601 9.57961C15.6701 9.74961 15.8601 10.0696 15.8601 10.4196Z" />
</svg>

<?xml version="1.0" encoding="UTF-8"?>
<svg width="24" height="24" viewBox="0 0 24 24" xmlns="http://www.w3.org/2000/svg">
 <path d="m20.49 6.7101-8-4.44c-0.3-0.17-0.67-0.17-0.97 0l-8 4.44c-0.32 0.18-0.51001 0.51-0.51001 0.87v8.82c0 0.36 0.20001 0.7 0.51001 0.87l8.02 4.46c0.29 0.16 0.64 0.17 0.93 0.02l4.03-2.01c0.31-0.16 0.68-0.14 0.98 0.05l1.99 1.25c0.67 0.42 1.53-0.06 1.53-0.85v-2.61c0-0.36-0.2-0.7-0.51-0.87l-3-1.66c-0.3-0.17-0.67-0.17-0.97 0l-4.03 2.24c-0.3 0.17-0.67 0.17-0.97 0l-4-2.22c-0.32-0.18-0.51001-0.51-0.51001-0.87v-4.38c0-0.36 0.20001-0.70001 0.51001-0.87001l4-2.22c0.3-0.17 0.67-0.17 0.97 0l4 2.22c0.32 0.18 0.51 0.51001 0.51 0.87001v3.06c0 0.81 0.91 1.28 1.57 0.82l2-1.39c0.27-0.19 0.43-0.49 0.43-0.82v-3.89c0-0.37-0.2-0.71-0.51-0.89z"/>
 <path d="m15.86 10.42v3.15c0 0.35-0.19 0.67-0.5 0.84l-2.89 1.61c-0.29 0.16-0.6499 0.16-0.9399 0l-2.8901-1.61c-0.31-0.17-0.5-0.49-0.5-0.84v-3.15c0-0.35 0.19-0.66999 0.5-0.83999l2.8901-1.61c0.29-0.16 0.6499-0.16 0.9399 0l2.89 1.61c0.31 0.17 0.5 0.48999 0.5 0.83999z"/>
</svg>
